X: 1608
T: Joe's Treeparter
B: australian traditional tunes wiki
B: kameruka bush dance
M:2/4
L:1/16
R: Polka
Q: 1/4=100
K:G
V:1 
|:"G"G2B2 d2dd|"C"e2e2"G" d4|"G"d2ed B2G2|"D7"B2A2 AAA2|
"G"G2B2 d2dd|"C"e2e2"G"d4|d2ed B2G2|"D7"B2A2"G"G4:|
"G"g3f "D7"e2d2|e2d2"G"B4|g3f e2d2|"D7"cBA2"C"E4|
"G"g3f "D7"e2d2|e2d2 efg2|"G"d2e2 dBGA|"D7"B2A2"G"G4|
"G"g2gg g2gg|g2g2g4|"C"e2a2 e2f2|"D7"e2d2 "G"ddd2|
g2gg g2gg|g2g2g4|"C"e2a2 "D7"e2f2|"G"g4g4||
% abcbook-tune_id 6342d53adbdc05a89b588b99


% abcbook-boost 0
% abcbook-tablature 
% abcbook-transpose 
% abcbook-lastupdated 1665396703578
% abcbook-soundfonts 
% abcbook-repeats 3
% NFF Book 2008

